svg/u1f632.svg

<svg viewBox="0 0 128 128" xmlns="http://www.w3.org/2000/svg">
  <g id="gold">
    <radialGradient id="face_1_" cx="63.6" cy="1696.9" gradientTransform="matrix(1 0 0 1 0 -1634)" gradientUnits="userSpaceOnUse" r="56.9597">
      <stop offset="0.5" stop-color="#FDE030"/>
      <stop offset="0.92" stop-color="#F7C02B"/>
      <stop offset="1" stop-color="#F4A223"/>
    </radialGradient>
    <path id="face" d="M63.6,118.8c-27.9,0-58-17.5-58-55.9S35.7,7,63.6,7c15.5,0,29.8,5.1,40.4,14.4 c11.5,10.2,17.6,24.6,17.6,41.5s-6.1,31.2-17.6,41.4C93.4,113.6,79,118.8,63.6,118.8z" fill="url(#face_1_)"/>
    <path d="M111.49,29.67c5.33,8.6,8.11,18.84,8.11,30.23c0,16.9-6.1,31.2-17.6,41.4 c-10.6,9.3-25,14.5-40.4,14.5c-18.06,0-37-7.35-48.18-22.94c10.76,17.66,31,25.94,50.18,25.94c15.4,0,29.8-5.2,40.4-14.5 c11.5-10.2,17.6-24.5,17.6-41.4C121.6,50.16,118.13,38.84,111.49,29.67z" fill="#EB8F00"/>
  </g>
  <g id="facial_expressions">
    <g id="astonished-face">
      <g id="mouth">
        <path d="M64.6,85.6c3.81,0.01,7.61-0.19,11.4-0.6c0.05-6.63-5.29-12.04-11.92-12.08S52.05,78.2,52,84.83 C56.18,85.35,60.39,85.61,64.6,85.6z" fill="#FFFFFF"/>
        <path d="M52,84.83c0,0.26,0,0.51,0,0.77v11.8c0,6.63,5.37,12,12,12s12-5.37,12-12V85.6 c0-0.21,0-0.42,0-0.63c-3.78,0.42-7.57,0.63-11.37,0.63C60.41,85.61,56.19,85.35,52,84.83z" fill="#422B0D"/>
      </g>
      <g id="eyes">
        <g id="peepers">
          <path d="M83.7,40.6c3.8,0,7.3,4.4,7.3,11.8s-3.5,11.8-7.3,11.8s-7.3-4.4-7.3-11.8S79.8,40.6,83.7,40.6z" fill="#422B0D"/>
          <path d="M44.3,40.6c-4.1,0-7.7,4.4-7.7,11.8s3.7,11.8,7.7,11.8S52,59.8,52,52.4S48.3,40.6,44.3,40.6z" fill="#422B0D"/>
        </g>
        <g id="eyebrows">
          <path d="M45.6,28.9L45.6,28.9c2.3,0.2,3.2-2.9,0.8-3.6c-1.89-0.51-3.85-0.71-5.8-0.6 c-5.29,0.2-10.3,2.42-14,6.2c-1.7,1.8,0.7,4,2.5,2.7C33.92,30.23,39.73,28.57,45.6,28.9z" fill="#422B0D"/>
          <path d="M82.2,28.9L82.2,28.9c5.9-0.34,11.75,1.31,16.6,4.7c1.8,1.3,4.2-0.9,2.5-2.7 c-3.71-3.76-8.72-5.98-14-6.2c-1.95-0.11-3.91,0.09-5.8,0.6c-0.98,0.28-1.55,1.29-1.27,2.27C80.47,28.44,81.31,29,82.2,28.9" fill="#422B0D"/>
        </g>
      </g>
    </g>
    <g id="peepers-2">
      <path d="M44.28,44.87L44.28,44.87c-1.42-0.68-3.13-0.08-3.82,1.34c-0.53,1.11-0.29,2.44,0.6,3.3l0,0 c1.42,0.68,3.13,0.08,3.82-1.34C45.41,47.06,45.17,45.73,44.28,44.87z" fill="#896024"/>
    </g>
    <g id="peepers-3">
      <path d="M83.31,44.87L83.31,44.87c-1.43-0.67-3.13-0.06-3.81,1.37c-0.52,1.11-0.28,2.42,0.6,3.27l0,0 c1.43,0.67,3.13,0.06,3.81-1.37C84.43,47.04,84.19,45.72,83.31,44.87z" fill="#896024"/>
    </g>
    <path d="M76,85.6c-0.58-2.94-2.12-5.61-4.37-7.6c-4.37-3.81-10.89-3.81-15.26,0 c-2.25,1.99-3.78,4.66-4.37,7.6c-0.56-3.35,0.44-6.77,2.71-9.29c4.49-5.13,12.3-5.65,17.43-1.15c0.41,0.36,0.79,0.74,1.15,1.15 c1.13,1.28,1.96,2.79,2.44,4.43C76.19,82.32,76.28,83.98,76,85.6z" fill="#EB8F00"/>
  </g>
</svg>

<svg viewBox="0 0 128 128" xmlns="http://www.w3.org/2000/svg">
  <defs>
    <radialGradient id="face_1_" cx="63.6" cy="62.9" gradientUnits="userSpaceOnUse" r="56.9597">
      <stop offset="0.5" stop-color="#FDE030"/>
      <stop offset="0.92" stop-color="#F7C02B"/>
      <stop offset="1" stop-color="#F4A223"/>
    </radialGradient>
  </defs>
  <path id="face" d="M63.6,118.8 C35.7,118.8 5.6,101.3 5.6,62.9 C5.6,24.5 35.7,7 63.6,7 C79.1,7 93.4,12.1 104,21.4 C115.5,31.6 121.6,46 121.6,62.9 C121.6,79.8 115.5,94.1 104,104.3 C93.4,113.6 79,118.8 63.6,118.8 Z" fill="url(#face_1_)"/>
  <path d="M111.49,29.67 C116.82,38.27 119.6,48.51 119.6,59.9 C119.6,76.8 113.5,91.1 102,101.3 C91.4,110.6 77,115.8 61.6,115.8 C43.54,115.8 24.6,108.45 13.42,92.86 C24.18,110.52 44.42,118.8 63.6,118.8 C79,118.8 93.4,113.6 104,104.3 C115.5,94.1 121.6,79.8 121.6,62.9 C121.6,50.16 118.13,38.84 111.49,29.67 Z" fill="#EB8F00"/>
  <path d="M64.6,85.6 C68.41,85.61 72.21,85.41 76,85 C76.05,78.37 70.71,72.96 64.08,72.92 C57.45,72.88 52.05,78.2 52,84.83 C56.18,85.35 60.39,85.61 64.6,85.6 Z" fill="#FFFFFF"/>
  <path d="M52,84.83 C52,85.09 52,85.34 52,85.6 L52,97.4 C52,104.03 57.37,109.4 64,109.4 C70.63,109.4 76,104.03 76,97.4 L76,85.6 C76,85.39 76,85.18 76,84.97 C72.22,85.39 68.43,85.6 64.63,85.6 C60.41,85.61 56.19,85.35 52,84.83 Z" fill="#422B0D"/>
  <path d="M83.7,40.6 C87.5,40.6 91,45 91,52.4 C91,59.8 87.5,64.2 83.7,64.2 C79.9,64.2 76.4,59.8 76.4,52.4 C76.4,45 79.8,40.6 83.7,40.6 Z" fill="#422B0D"/>
  <path d="M44.3,40.6 C40.2,40.6 36.6,45 36.6,52.4 C36.6,59.8 40.3,64.2 44.3,64.2 C48.3,64.2 52,59.8 52,52.4 C52,45 48.3,40.6 44.3,40.6 Z" fill="#422B0D"/>
  <path d="M45.6,28.9 L45.6,28.9 C47.9,29.1 48.8,26 46.4,25.3 C44.51,24.79 42.55,24.59 40.6,24.7 C35.31,24.9 30.3,27.12 26.6,30.9 C24.9,32.7 27.3,34.9 29.1,33.6 C33.92,30.23 39.73,28.57 45.6,28.9 Z" fill="#422B0D"/>
  <path d="M82.2,28.9 L82.2,28.9 C88.1,28.56 93.95,30.21 98.8,33.6 C100.6,34.9 103,32.7 101.3,30.9 C97.59,27.14 92.58,24.92 87.3,24.7 C85.35,24.59 83.39,24.79 81.5,25.3 C80.52,25.58 79.95,26.59 80.23,27.57 C80.47,28.44 81.31,29 82.2,28.9" fill="#422B0D"/>
  <path d="M44.28,44.87 L44.28,44.87 C42.86,44.19 41.15,44.79 40.46,46.21 C39.93,47.32 40.17,48.65 41.06,49.51 L41.06,49.51 C42.48,50.19 44.19,49.59 44.88,48.17 C45.41,47.06 45.17,45.73 44.28,44.87 Z" fill="#896024"/>
  <path d="M83.31,44.87 L83.31,44.87 C81.88,44.2 80.18,44.81 79.5,46.24 C78.98,47.35 79.22,48.66 80.1,49.51 L80.1,49.51 C81.53,50.18 83.23,49.57 83.91,48.14 C84.43,47.04 84.19,45.72 83.31,44.87 Z" fill="#896024"/>
  <path d="M76,85.6 C75.42,82.66 73.88,79.99 71.63,78 C67.26,74.19 60.74,74.19 56.37,78 C54.12,79.99 52.59,82.66 52,85.6 C51.44,82.25 52.44,78.83 54.71,76.31 C59.2,71.18 67.01,70.66 72.14,75.16 C72.55,75.52 72.93,75.9 73.29,76.31 C74.42,77.59 75.25,79.1 75.73,80.74 C76.19,82.32 76.28,83.98 76,85.6 Z" fill="#EB8F00"/>
</svg>
